; G-Code generated by Simplify3D(R) Version 4.1.1
; Mar 24, 2020 at 11:05:10 PM
; Settings Summary
;   processName,Process1
;   applyToModels,R1
;   profileName,ShieldsLeft_gcode (modified)
;   profileVersion,2020-03-24 23:03:14
;   baseProfile,MakerBot Replicator 1 Dual
;   printMaterial,ABS
;   printQuality,Medium
;   printExtruders,Left Extruder Only
;   extruderName,Right Extruder,Left Extruder
;   extruderToolheadNumber,0,1
;   extruderDiameter,0.4,0.4
;   extruderAutoWidth,0,0
;   extruderWidth,0.4,0.35
;   extrusionMultiplier,1,1
;   extruderUseRetract,1,1
;   extruderRetractionDistance,1,1
;   extruderExtraRestartDistance,0,0
;   extruderRetractionZLift,0,0
;   extruderRetractionSpeed,1200,1200
;   extruderUseCoasting,0,0
;   extruderCoastingDistance,0.2,0.2
;   extruderUseWipe,0,0
;   extruderWipeDistance,5,5
;   primaryExtruder,1
;   layerHeight,0.3
;   topSolidLayers,3
;   bottomSolidLayers,3
;   perimeterOutlines,2
;   printPerimetersInsideOut,1
;   startPointOption,2
;   startPointOriginX,0
;   startPointOriginY,0
;   sequentialIslands,0
;   spiralVaseMode,0
;   firstLayerHeightPercentage,90
;   firstLayerWidthPercentage,100
;   firstLayerUnderspeed,0.5
;   useRaft,0
;   raftExtruder,1
;   raftTopLayers,3
;   raftBaseLayers,2
;   raftOffset,3
;   raftSeparationDistance,0.14
;   raftTopInfill,100
;   aboveRaftSpeedMultiplier,0.3
;   useSkirt,0
;   skirtExtruder,1
;   skirtLayers,1
;   skirtOutlines,6
;   skirtOffset,0
;   usePrimePillar,0
;   primePillarExtruder,999
;   primePillarWidth,12
;   primePillarLocation,7
;   primePillarSpeedMultiplier,1
;   useOozeShield,0
;   oozeShieldExtruder,999
;   oozeShieldOffset,2
;   oozeShieldOutlines,1
;   oozeShieldSidewallShape,1
;   oozeShieldSidewallAngle,30
;   oozeShieldSpeedMultiplier,1
;   infillExtruder,1
;   internalInfillPattern,Rectilinear
;   externalInfillPattern,Rectilinear
;   infillPercentage,20
;   outlineOverlapPercentage,20
;   infillExtrusionWidthPercentage,100
;   minInfillLength,5
;   infillLayerInterval,1
;   internalInfillAngles,45,-45
;   overlapInternalInfillAngles,0
;   externalInfillAngles,45,-45
;   generateSupport,0
;   supportExtruder,1
;   supportInfillPercentage,30
;   supportExtraInflation,0
;   supportBaseLayers,0
;   denseSupportExtruder,1
;   denseSupportLayers,0
;   denseSupportInfillPercentage,70
;   supportLayerInterval,1
;   supportHorizontalPartOffset,0.3
;   supportUpperSeparationLayers,1
;   supportLowerSeparationLayers,1
;   supportType,0
;   supportGridSpacing,4
;   maxOverhangAngle,45
;   supportAngles,0
;   temperatureName,Right Extruder,Left Extruder,Heated Build Platform
;   temperatureNumber,0,1,0
;   temperatureSetpointCount,1,1,1
;   temperatureSetpointLayers,1,1,1
;   temperatureSetpointTemperatures,0,220,70
;   temperatureStabilizeAtStartup,0,0,0
;   temperatureHeatedBed,0,0,1
;   fanLayers,1
;   fanSpeeds,0
;   blipFanToFullPower,0
;   adjustSpeedForCooling,1
;   minSpeedLayerTime,15
;   minCoolingSpeedSlowdown,20
;   increaseFanForCooling,0
;   minFanLayerTime,45
;   maxCoolingFanSpeed,100
;   increaseFanForBridging,1
;   bridgingFanSpeed,100
;   use5D,1
;   relativeEdistances,1
;   allowEaxisZeroing,0
;   independentExtruderAxes,1
;   includeM10123,0
;   stickySupport,1
;   applyToolheadOffsets,0
;   gcodeXoffset,0
;   gcodeYoffset,0
;   gcodeZoffset,0
;   overrideMachineDefinition,1
;   machineTypeOverride,0
;   strokeXoverride,220
;   strokeYoverride,140
;   strokeZoverride,150
;   originOffsetXoverride,110
;   originOffsetYoverride,70
;   originOffsetZoverride,0
;   homeXdirOverride,1
;   homeYdirOverride,1
;   homeZdirOverride,-1
;   flipXoverride,1
;   flipYoverride,-1
;   flipZoverride,1
;   toolheadOffsets,0,0|34,0|0,0|0,0|0,0|0,0
;   overrideFirmwareConfiguration,1
;   firmwareTypeOverride,RepRap (Marlin/Repetier/Sprinter)
;   GPXconfigOverride,r1d
;   baudRateOverride,115200
;   overridePrinterModels,1
;   printerModelsOverride,MakerBot_Replicator1.stl
;   startingGcode,; **** Replicator 1 dual start.gcode ****,M73 P0 ; Enable build progress,G162 X Y F3000 ; Home XY maximum,G161 Z F1200 ; Home Z minimum,G92 Z-5 ; Set Z to -5,G1 Z0 ; Move Z to 0,G161 Z F100 ; Home Z slowly,M132 X Y Z A B ; Recall home offsets,M135 T0 ; Load right extruder offsets,G1 X-100 Y-70 Z30 F9000 ; Move to wait position off table,G130 X20 Y20 Z20 A20 B20 ; Lower stepper Vrefs while heating,M126 S[fan_speed_pwm] ; Set fan speed,M140 S[bed0_temperature] T0 ; Heat buildplate ,M134 T0 ; Stabilize bed temperature,M104 S[extruder1_temperature] T1 ; Heat left extruder,M133 T1 ; Stabilize left extruder temperature,G130 X127 Y127 Z40 A127 B127 ; Default stepper Vrefs,G92 A0 B0 ; Zero extruders,M135 T1 ; Load left extruder offsets,G1 X-100 Y-68 F9000 ; Move to front left corner of bed,G1 Z0.3 F6000 ; Move down to purge,G1 X90 Y-68 E24 F2000 ; Extrude a line of filament across the front edge of the bed,G1 X100 Y-68 F180 ; Wait for ooze,G1 X110 Y-68 F5000 ; Fast wipe,G1 Z1 F100 ; Lift,G92 A0 B0 ; Zero extruders,M73 P1 ;@body (notify GPX body has started),; **** end of start.gcode ****
;   layerChangeGcode,
;   retractionGcode,
;   toolChangeGcode,
;   endingGcode,; **** Replicator 1 dual end.gcode ****,M73 P100 ; end build progress,G1 Z150 F1000 ; send Z axis to bottom of machine,M140 S0 T0 ; cool down HBP,M104 S0 T0 ; cool down right extruder,M104 S0 T1 ; cool down left extruder,M127 ; stop blower fan,G162 X Y F3000 ; home XY maximum,M18 ; disable stepper,M72 P1 ; play Ta-Da song,; **** end of end.gcode ****
;   exportFileFormat,gcode
;   celebration,1
;   celebrationSong,Random Song
;   postProcessing,
;   defaultSpeed,3600
;   outlineUnderspeed,0.5
;   solidInfillUnderspeed,0.8
;   supportUnderspeed,0.8
;   rapidXYspeed,4200
;   rapidZspeed,1200
;   minBridgingArea,50
;   bridgingExtraInflation,0
;   bridgingExtrusionMultiplier,1
;   bridgingSpeedMultiplier,0.8
;   useFixedBridgingAngle,0
;   fixedBridgingAngle,0
;   applyBridgingToPerimeters,0
;   filamentDiameters,1.75|1.75|1.75|1.75|1.75|1.75
;   filamentPricesPerKg,46|46|46|46|46|46
;   filamentDensities,1.25|1.25|1.25|1.25|1.25|1.25
;   useMinPrintHeight,0
;   minPrintHeight,0
;   useMaxPrintHeight,0
;   maxPrintHeight,0
;   useDiaphragm,0
;   diaphragmLayerInterval,20
;   robustSlicing,1
;   mergeAllIntoSolid,0
;   onlyRetractWhenCrossingOutline,1
;   retractBetweenLayers,1
;   useRetractionMinTravel,0
;   retractionMinTravel,3
;   retractWhileWiping,0
;   onlyWipeOutlines,1
;   avoidCrossingOutline,0
;   maxMovementDetourFactor,3
;   toolChangeRetractionDistance,12
;   toolChangeExtraRestartDistance,-0.5
;   toolChangeRetractionSpeed,600
;   externalThinWallType,0
;   internalThinWallType,2
;   thinWallAllowedOverlapPercentage,10
;   singleExtrusionMinLength,1
;   singleExtrusionMinPrintingWidthPercentage,50
;   singleExtrusionMaxPrintingWidthPercentage,200
;   singleExtrusionEndpointExtension,0.2
;   horizontalSizeCompensation,0
G90
M83
M104 S0 T0
; **** Replicator 1 dual start.gcode ****
M73 P0 ; Enable build progress
G162 X Y F3000 ; Home XY maximum
G161 Z F1200 ; Home Z minimum
G92 Z-5 ; Set Z to -5
G1 Z0 ; Move Z to 0
G161 Z F100 ; Home Z slowly
M132 X Y Z A B ; Recall home offsets
M135 T0 ; Load right extruder offsets
G1 X-100 Y-70 Z30 F9000 ; Move to wait position off table
G130 X20 Y20 Z20 A20 B20 ; Lower stepper Vrefs while heating
M126 S0 ; Set fan speed
M140 S70 T0 ; Heat buildplate 
M134 T0 ; Stabilize bed temperature
M104 S220 T1 ; Heat left extruder
M133 T1 ; Stabilize left extruder temperature
G130 X127 Y127 Z40 A127 B127 ; Default stepper Vrefs
G92 A0 B0 ; Zero extruders
M135 T1 ; Load left extruder offsets
G1 X-100 Y-68 F9000 ; Move to front left corner of bed
G1 Z0.3 F6000 ; Move down to purge
G1 X90 Y-68 E24 F2000 ; Extrude a line of filament across the front edge of the bed
G1 X100 Y-68 F180 ; Wait for ooze
G1 X110 Y-68 F5000 ; Fast wipe
G1 Z1 F100 ; Lift
G92 A0 B0 ; Zero extruders
M73 P1 ;@body (notify GPX body has started)
; **** end of start.gcode ****
; process Process1
; layer 1, Z = 0.270
T1
G1 E-1.0000 F1200
; feature inner perimeter
; tool H0.270 W0.350
G1 Z0.270 F1200
G1 X-0.904 Y27.409 F4200
G1 E1.0000 F1200
G1 X0.000 Y27.434 E0.0355 F1350
G1 X0.992 Y27.407 E0.0390
G1 X-0.033 Y29.048 E0.0760
G1 X-0.904 Y27.409 E0.0729
G1 E-1.0000 F1200
G1 X0.000 Y67.648 F4200
G1 E1.0000 F1200
G1 X1.044 Y69.457 E0.0820 F1350
G1 X0.000 Y69.475 E0.0410
G1 X-1.044 Y69.457 E0.0410
G1 X0.000 Y67.648 E0.0820
G1 E-1.0000 F1200
G1 X-57.902 Y4.742 F4200
G1 E1.0000 F1200
G1 X-59.872 Y5.270 E0.0801 F1350
G1 X-59.361 Y3.363 E0.0776
G1 X-57.902 Y4.742 E0.0789
G1 E-1.0000 F1200
G1 X-86.059 Y16.489 F4200
G1 E1.0000 F1200
G1 X-87.182 Y18.286 E0.0833 F1350
G1 X-88.152 Y16.511 E0.0795
G1 X-86.059 Y16.489 E0.0822
G1 E-1.0000 F1200
G1 X-93.453 Y4.738 F4200
G1 E1.0000 F1200
G1 X-95.347 Y4.738 E0.0744 F1350
G1 X-96.294 Y3.098 E0.0744
G1 X-95.347 Y1.458 E0.0744
G1 X-93.453 Y1.458 E0.0744
G1 X-92.506 Y3.098 E0.0744
G1 X-93.453 Y4.738 E0.0744
G1 E-1.0000 F1200
G1 X-89.778 Y-58.578 F4200
G1 E1.0000 F1200
G1 X-89.776 Y-62.928 E0.1709 F1350
G1 X-85.325 Y-62.928 E0.1749
G1 X-85.325 Y-58.578 E0.1709
G1 X-89.778 Y-58.578 E0.1749
G1 E-1.0000 F1200
G1 X-88.142 Y-68.179 F4200
G1 E1.0000 F1200
G1 X-89.622 Y-69.660 E0.0823 F1350
G1 X-89.081 Y-71.682 E0.0823
G1 X-87.058 Y-72.224 E0.0823
G1 X-85.578 Y-70.744 E0.0823
G1 X-86.119 Y-68.721 E0.0823
G1 X-88.142 Y-68.179 E0.0823
G1 E-1.0000 F1200
G1 X57.902 Y4.742 F4200
G1 E1.0000 F1200
G1 X59.361 Y3.363 E0.0789 F1350
G1 X59.872 Y5.270 E0.0776
G1 X57.902 Y4.742 E0.0801
G1 E-1.0000 F1200
G1 X86.138 Y16.490 F4200
G1 E1.0000 F1200
G1 X88.152 Y16.511 E0.0791 F1350
G1 X87.137 Y18.368 E0.0832
G1 X86.138 Y16.490 E0.0836
G1 E-1.0000 F1200
G1 X93.453 Y4.738 F4200
G1 E1.0000 F1200
G1 X92.506 Y3.098 E0.0744 F1350
G1 X93.453 Y1.458 E0.0744
G1 X95.347 Y1.458 E0.0744
G1 X96.294 Y3.098 E0.0744
G1 X95.347 Y4.738 E0.0744
G1 X93.453 Y4.738 E0.0744
G1 E-1.0000 F1200
G1 X89.776 Y-58.578 F4200
G1 E1.0000 F1200
G1 X85.325 Y-58.578 E0.1749 F1350
G1 X85.328 Y-62.928 E0.1709
G1 X89.778 Y-62.928 E0.1748
G1 X89.776 Y-58.578 E0.1709
G1 E-1.0000 F1200
G1 X88.142 Y-68.179 F4200
G1 E1.0000 F1200
G1 X86.119 Y-68.721 E0.0823 F1350
G1 X85.578 Y-70.743 E0.0823
G1 X87.058 Y-72.224 E0.0823
G1 X89.081 Y-71.682 E0.0823
G1 X89.622 Y-69.660 E0.0823
G1 X88.142 Y-68.179 E0.0823
; feature outer perimeter
G1 X85.834 Y-68.435 F4200
G1 X85.329 Y-70.318 E0.0766 F900
G1 X85.025 Y-70.278 E0.0121
G1 X85.025 Y-63.278 E0.2750
G1 X90.080 Y-63.278 E0.1986
G1 X90.080 Y-69.590 E0.2480
G1 X90.121 Y-69.569 E0.0018
G1 X90.129 Y-69.554 E0.0007
G1 X90.130 Y-69.548 E0.0002
G1 X90.123 Y-51.940 E0.6918
G1 X90.116 Y-51.927 E0.0006
G1 X90.100 Y-51.927 E0.0006
G1 X90.090 Y-51.933 E0.0005
G1 X90.080 Y-51.968 E0.0014
G1 X90.080 Y-58.227 E0.2459
G1 X85.029 Y-58.227 E0.1984
G1 X84.901 Y-53.300 E0.1937
G1 X84.529 Y-48.723 E0.1804
G1 X83.911 Y-44.173 E0.1804
G1 X83.048 Y-39.663 E0.1804
G1 X81.943 Y-35.206 E0.1804
G1 X80.599 Y-30.815 E0.1804
G1 X79.019 Y-26.503 E0.1804
G1 X77.209 Y-22.282 E0.1804
G1 X75.174 Y-18.166 E0.1804
G1 X72.920 Y-14.165 E0.1804
G1 X70.453 Y-10.292 E0.1804
G1 X67.780 Y-6.558 E0.1804
G1 X64.910 Y-2.973 E0.1804
G1 X61.850 Y0.451 E0.1804
G1 X59.559 Y2.752 E0.1276
G1 X60.322 Y5.600 E0.1158
G1 X60.792 Y6.049 E0.0255
G1 X63.130 Y7.972 E0.1189
G1 X65.606 Y9.714 E0.1189
G1 X68.207 Y11.265 E0.1189
G1 X70.916 Y12.615 E0.1189
G1 X73.720 Y13.757 E0.1189
G1 X76.602 Y14.685 E0.1189
G1 X79.545 Y15.393 E0.1189
G1 X82.534 Y15.878 E0.1189
G1 X85.523 Y16.133 E0.1179
G1 X88.682 Y16.166 E0.1241
G1 X90.518 Y12.404 E0.1645
G1 X92.155 Y8.666 E0.1603
G1 X93.548 Y5.088 E0.1508
G1 X93.251 Y5.088 E0.0117
G1 X92.102 Y3.098 E0.0903
G1 X93.251 Y1.108 E0.0903
G1 X95.549 Y1.108 E0.0903
G1 X96.698 Y3.098 E0.0903
G1 X95.549 Y5.088 E0.0903
G1 X93.602 Y5.088 E0.0765
G1 X92.227 Y8.622 E0.1490
G1 X90.639 Y12.260 E0.1559
G1 X88.725 Y16.204 E0.1722
G1 X90.221 Y15.916 E0.0599
G1 X91.324 Y15.463 E0.0468
G1 X92.314 Y14.800 E0.0468
G1 X93.132 Y13.976 E0.0456
G1 X93.166 Y13.951 E0.0017
G1 X93.176 Y13.950 E0.0004
G1 X93.184 Y13.954 E0.0004
G1 X93.192 Y13.964 E0.0005
G1 X93.188 Y13.988 E0.0009
G1 X92.492 Y14.713 E0.0395
G1 X91.680 Y15.314 E0.0397
G1 X90.779 Y15.771 E0.0397
G1 X89.814 Y16.072 E0.0397
G1 X88.710 Y16.220 E0.0438
G1 X86.459 Y20.338 E0.1844
G1 X84.056 Y24.285 E0.1816
G1 X81.472 Y28.116 E0.1816
G1 X78.711 Y31.822 E0.1815
G1 X75.781 Y35.395 E0.1816
G1 X72.686 Y38.827 E0.1816
G1 X69.435 Y42.111 E0.1816
G1 X65.983 Y45.288 E0.1843
G1 X65.983 Y49.251 E0.1557
G1 X65.973 Y49.286 E0.0014
G1 X65.960 Y49.293 E0.0006
G1 X65.948 Y49.290 E0.0005
G1 X65.941 Y49.283 E0.0004
G1 X65.933 Y49.251 E0.0013
G1 X65.933 Y45.341 E0.1536
G1 X62.085 Y48.529 E0.1963
G1 X58.398 Y51.303 E0.1813
G1 X54.586 Y53.903 E0.1813
G1 X50.657 Y56.322 E0.1813
G1 X46.660 Y58.535 E0.1795
G1 X42.523 Y60.579 E0.1813
G1 X38.296 Y62.429 E0.1813
G1 X33.987 Y64.080 E0.1813
G1 X29.479 Y65.570 E0.1865
G1 X29.479 Y69.525 E0.1554
G1 X29.470 Y69.557 E0.0013
G1 X29.463 Y69.564 E0.0004
G1 X29.454 Y69.567 E0.0004
G1 X29.444 Y69.564 E0.0004
G1 X29.438 Y69.557 E0.0004
G1 X29.429 Y69.525 E0.0013
G1 X29.429 Y65.588 E0.1547
G1 X24.405 Y66.958 E0.2046
G1 X19.629 Y68.010 E0.1921
G1 X14.762 Y68.831 E0.1939
G1 X9.815 Y69.411 E0.1957
G1 X4.936 Y69.739 E0.1921
G1 X0.000 Y69.825 E0.1940
G1 X-4.936 Y69.739 E0.1940
G1 X-9.815 Y69.411 E0.1921
G1 X-14.762 Y68.831 E0.1957
G1 X-19.629 Y68.010 E0.1939
G1 X-24.405 Y66.958 E0.1921
G1 X-29.429 Y65.588 E0.2046
G1 X-29.429 Y69.525 E0.1547
G1 X-29.438 Y69.557 E0.0013
G1 X-29.446 Y69.566 E0.0005
G1 X-29.461 Y69.566 E0.0006
G1 X-29.470 Y69.557 E0.0005
G1 X-29.479 Y69.525 E0.0013
G1 X-29.479 Y65.570 E0.1554
G1 X-33.987 Y64.080 E0.1865
G1 X-38.296 Y62.429 E0.1813
G1 X-42.523 Y60.579 E0.1813
G1 X-46.660 Y58.535 E0.1813
G1 X-50.657 Y56.322 E0.1795
G1 X-54.586 Y53.903 E0.1813
G1 X-58.398 Y51.303 E0.1813
G1 X-62.085 Y48.529 E0.1813
G1 X-65.933 Y45.341 E0.1963
G1 X-65.933 Y49.251 E0.1536
G1 X-65.941 Y49.283 E0.0013
G1 X-65.948 Y49.290 E0.0004
G1 X-65.960 Y49.293 E0.0005
G1 X-65.973 Y49.286 E0.0006
G1 X-65.983 Y49.251 E0.0014
G1 X-65.983 Y45.288 E0.1557
G1 X-69.435 Y42.111 E0.1843
G1 X-72.686 Y38.827 E0.1816
G1 X-75.781 Y35.395 E0.1816
G1 X-78.711 Y31.822 E0.1816
G1 X-81.472 Y28.116 E0.1815
G1 X-84.056 Y24.285 E0.1816
G1 X-86.459 Y20.338 E0.1816
G1 X-88.710 Y16.220 E0.1844
G1 X-89.814 Y16.072 E0.0438
G1 X-90.779 Y15.771 E0.0397
G1 X-91.680 Y15.314 E0.0397
G1 X-92.492 Y14.713 E0.0397
G1 X-93.188 Y13.988 E0.0395
G1 X-93.192 Y13.964 E0.0009
G1 X-93.184 Y13.954 E0.0005
G1 X-93.176 Y13.950 E0.0004
G1 X-93.166 Y13.951 E0.0004
G1 X-93.132 Y13.976 E0.0017
G1 X-92.314 Y14.800 E0.0456
G1 X-91.324 Y15.463 E0.0468
G1 X-90.221 Y15.916 E0.0468
G1 X-88.725 Y16.204 E0.0599
G1 X-90.639 Y12.260 E0.1722
G1 X-92.227 Y8.622 E0.1559
G1 X-93.602 Y5.088 E0.1490
G1 X-95.549 Y5.088 E0.0765
G1 X-96.698 Y3.098 E0.0903
G1 X-95.549 Y1.108 E0.0903
G1 X-93.251 Y1.108 E0.0903
G1 X-92.102 Y3.098 E0.0903
G1 X-93.251 Y5.088 E0.0903
G1 X-93.548 Y5.088 E0.0117
G1 X-92.155 Y8.666 E0.1508
G1 X-90.518 Y12.404 E0.1603
G1 X-88.682 Y16.166 E0.1645
G1 X-85.523 Y16.133 E0.1241
G1 X-82.534 Y15.878 E0.1179
G1 X-79.545 Y15.393 E0.1189
G1 X-76.602 Y14.685 E0.1189
G1 X-73.720 Y13.757 E0.1189
G1 X-70.916 Y12.615 E0.1189
G1 X-68.207 Y11.265 E0.1189
G1 X-65.606 Y9.714 E0.1189
G1 X-63.130 Y7.972 E0.1189
G1 X-60.792 Y6.049 E0.1189
G1 X-60.322 Y5.600 E0.0255
G1 X-59.559 Y2.752 E0.1158
G1 X-61.850 Y0.451 E0.1276
G1 X-64.910 Y-2.973 E0.1804
G1 X-67.780 Y-6.558 E0.1804
G1 X-70.453 Y-10.292 E0.1804
